assets/Calendar/Flat/calendar_flat.svg

<svg width="32" height="32" viewBox="0 0 32 32" fill="none" xmlns="http://www.w3.org/2000/svg">
<path d="M2 9.00001L15.2666 6.15716C15.7501 6.05357 16.2499 6.05357 16.7334 6.15716L30 9.00001V24.8C30 27.6719 27.6719 30 24.8 30H7.2C4.32812 30 2 27.6719 2 24.8V9.00001Z" fill="#B4ACBC"/>
<path d="M3 8.00005L15.213 5.18167C15.7309 5.06216 16.2691 5.06216 16.787 5.18167L29 8.00005V24.5001C29 26.9853 26.9853 29.0001 24.5 29.0001H7.5C5.01472 29.0001 3 26.9853 3 24.5001V8.00005Z" fill="#F3EEF8"/>
<path d="M7.9998 12C7.88935 12 7.7998 12.0895 7.7998 12.2V14.8C7.7998 14.9105 7.88935 15 7.9998 15H10.7998C10.9103 15 10.9998 14.9105 10.9998 14.8V12.2C10.9998 12.0895 10.9103 12 10.7998 12H7.9998Z" fill="#998EA4"/>
<path d="M7.9998 17.5C7.88935 17.5 7.7998 17.5895 7.7998 17.7V20.3C7.7998 20.4105 7.88935 20.5 7.9998 20.5H10.7998C10.9103 20.5 10.9998 20.4105 10.9998 20.3V17.7C10.9998 17.5895 10.9103 17.5 10.7998 17.5H7.9998Z" fill="#998EA4"/>
<path d="M7.7998 23.1C7.7998 22.9896 7.88935 22.9 7.9998 22.9H10.7998C10.9103 22.9 10.9998 22.9896 10.9998 23.1V25.7C10.9998 25.8105 10.9103 25.9 10.7998 25.9H7.9998C7.88935 25.9 7.7998 25.8105 7.7998 25.7V23.1Z" fill="#998EA4"/>
<path d="M14.5998 12C14.4893 12 14.3998 12.0895 14.3998 12.2V14.8C14.3998 14.9105 14.4893 15 14.5998 15H17.3998C17.5102 15 17.5998 14.9105 17.5998 14.8V12.2C17.5998 12.0895 17.5102 12 17.3998 12H14.5998Z" fill="#998EA4"/>
<path d="M14.3998 17.7C14.3998 17.5895 14.4893 17.5 14.5998 17.5H17.3998C17.5102 17.5 17.5998 17.5895 17.5998 17.7V20.3C17.5998 20.4105 17.5102 20.5 17.3998 20.5H14.5998C14.4893 20.5 14.3998 20.4105 14.3998 20.3V17.7Z" fill="#998EA4"/>
<path d="M14.5998 22.9C14.4893 22.9 14.3998 22.9896 14.3998 23.1V25.7C14.3998 25.8105 14.4893 25.9 14.5998 25.9H17.3998C17.5102 25.9 17.5998 25.8105 17.5998 25.7V23.1C17.5998 22.9896 17.5102 22.9 17.3998 22.9H14.5998Z" fill="#998EA4"/>
<path d="M20.9998 12.2C20.9998 12.0895 21.0894 12 21.1998 12H23.9998C24.1103 12 24.1998 12.0895 24.1998 12.2V14.8C24.1998 14.9105 24.1103 15 23.9998 15H21.1998C21.0894 15 20.9998 14.9105 20.9998 14.8V12.2Z" fill="#998EA4"/>
<path d="M21.1998 22.9C21.0894 22.9 20.9998 22.9896 20.9998 23.1V25.7C20.9998 25.8105 21.0894 25.9 21.1998 25.9H23.9998C24.1103 25.9 24.1998 25.8105 24.1998 25.7V23.1C24.1998 22.9896 24.1103 22.9 23.9998 22.9H21.1998Z" fill="#998EA4"/>
<path d="M7.2 2C4.32812 2 2 4.32812 2 7.2V9H30V7.2C30 4.32812 27.6719 2 24.8 2H7.2Z" fill="#0084CE"/>
<path d="M21.2 17.5C21.0895 17.5 21 17.5895 21 17.7V20.3C21 20.4105 21.0895 20.5 21.2 20.5H24C24.1105 20.5 24.2 20.4105 24.2 20.3V17.7C24.2 17.5895 24.1105 17.5 24 17.5H21.2Z" fill="#0084CE"/>
</svg>

<svg xmlns="http://www.w3.org/2000/svg" width="32" height="32" fill="none"><path fill="#B4ACBC" d="m2 9 13.267-2.843a3.5 3.5 0 0 1 1.466 0L30 9v15.8a5.2 5.2 0 0 1-5.2 5.2H7.2A5.2 5.2 0 0 1 2 24.8V9Z"/><path fill="#F3EEF8" d="m3 8 12.213-2.818a3.5 3.5 0 0 1 1.574 0L29 8v16.5a4.5 4.5 0 0 1-4.5 4.5h-17A4.5 4.5 0 0 1 3 24.5V8Z"/><path fill="#998EA4" d="M8 12a.2.2 0 0 0-.2.2v2.6c0 .11.09.2.2.2h2.8a.2.2 0 0 0 .2-.2v-2.6a.2.2 0 0 0-.2-.2H8ZM8 17.5a.2.2 0 0 0-.2.2v2.6c0 .11.09.2.2.2h2.8a.2.2 0 0 0 .2-.2v-2.6a.2.2 0 0 0-.2-.2H8ZM7.8 23.1c0-.11.09-.2.2-.2h2.8c.11 0 .2.09.2.2v2.6a.2.2 0 0 1-.2.2H8a.2.2 0 0 1-.2-.2v-2.6ZM14.6 12a.2.2 0 0 0-.2.2v2.6c0 .11.09.2.2.2h2.8a.2.2 0 0 0 .2-.2v-2.6a.2.2 0 0 0-.2-.2h-2.8ZM14.4 17.7c0-.11.09-.2.2-.2h2.8c.11 0 .2.09.2.2v2.6a.2.2 0 0 1-.2.2h-2.8a.2.2 0 0 1-.2-.2v-2.6ZM14.6 22.9a.2.2 0 0 0-.2.2v2.6c0 .11.09.2.2.2h2.8a.2.2 0 0 0 .2-.2v-2.6a.2.2 0 0 0-.2-.2h-2.8ZM21 12.2c0-.11.09-.2.2-.2H24c.11 0 .2.09.2.2v2.6a.2.2 0 0 1-.2.2h-2.8a.2.2 0 0 1-.2-.2v-2.6ZM21.2 22.9a.2.2 0 0 0-.2.2v2.6c0 .11.09.2.2.2H24a.2.2 0 0 0 .2-.2v-2.6a.2.2 0 0 0-.2-.2h-2.8Z"/><path fill="#0084CE" d="M7.2 2A5.2 5.2 0 0 0 2 7.2V9h28V7.2A5.2 5.2 0 0 0 24.8 2H7.2ZM21.2 17.5a.2.2 0 0 0-.2.2v2.6c0 .11.09.2.2.2H24a.2.2 0 0 0 .2-.2v-2.6a.2.2 0 0 0-.2-.2h-2.8Z"/></svg>
